X: 5
T:Angeline the Baker
M:4/4
L:1/8
Q:120
C:Traditional
R:Reel
K:D
[DA][DA]|:"D"[D2A2][D2B2][D3d3][DA]|[D2B2][D4d4][DB][DA]|[D2A2][D2B2][Dd
][DB][D2A2]|!
"Bm"[D6B6][Dd][DB]|\
"D"[D2A2][D2B2][D3d3]e|fafe [D3d3]e|"A"fafe [d2D2] [D2B2]|!
[1"D"[D2A2][DA][DA][D2A2] dA:|[2"D"[D2A2][DA][DA][D2A2] ((3efg|:"D"a2)f2
e2d2|efed B2 ((3efg|a2) (3faf
e2 d2|!
"Bm" {A}[D3B3][Dd][D2B2] ((3efg|"D"a2)\
f2e2d2|efed B2 ((3efg|"A"afe2 d2 (3BdB|"D"[D2A2][DA][DA][D2A2]((3efg):|
